assets/svg/crosshair-empty.svg

<?xml version="1.0" encoding="UTF-8" standalone="no"?>
<!-- Created with Inkscape (http://www.inkscape.org/) -->

<svg
        xmlns:dc="http://purl.org/dc/elements/1.1/"
        xmlns:cc="http://creativecommons.org/ns#"
        xmlns:rdf="http://www.w3.org/1999/02/22-rdf-syntax-ns#"
        xmlns:sodipodi="http://sodipodi.sourceforge.net/DTD/sodipodi-0.dtd"
        xmlns:inkscape="http://www.inkscape.org/namespaces/inkscape"
        xmlns="http://www.w3.org/2000/svg"
        width="100"
        height="100"
        viewBox="0 0 26.458333 26.458334"
        version="1.1"
        id="svg8"
        inkscape:version="0.92.5 (2060ec1f9f, 2020-04-08)"
        sodipodi:docname="crosshair-empty.svg">
    <defs
            id="defs2"/>
    <sodipodi:namedview
            id="base"
            pagecolor="#ffffff"
            bordercolor="#666666"
            borderopacity="1.0"
            inkscape:pageopacity="0.0"
            inkscape:pageshadow="2"
            inkscape:zoom="5.6568542"
            inkscape:cx="22.669779"
            inkscape:cy="52.573519"
            inkscape:document-units="px"
            inkscape:current-layer="g848"
            showgrid="false"
            units="px"
            showguides="true"
            inkscape:guide-bbox="true"
            inkscape:window-width="1920"
            inkscape:window-height="999"
            inkscape:window-x="0"
            inkscape:window-y="0"
            inkscape:window-maximized="1">
        <sodipodi:guide
                position="13.229167,23.859748"
                orientation="1,0"
                id="guide815"
                inkscape:locked="false"/>
        <sodipodi:guide
                position="14.944824,13.229167"
                orientation="0,1"
                id="guide817"
                inkscape:locked="false"/>
    </sodipodi:namedview>
    <metadata
            id="metadata5">
        <rdf:RDF>
            <cc:Work
                    rdf:about="">
                <dc:format>image/svg+xml</dc:format>
                <dc:type
                        rdf:resource="http://purl.org/dc/dcmitype/StillImage"/>
                <dc:title/>
            </cc:Work>
        </rdf:RDF>
    </metadata>
    <g
            inkscape:label="Layer 1"
            inkscape:groupmode="layer"
            id="layer1"
            transform="translate(0,-270.54165)">
        <g
                id="g848">
            <path
                    style="color:#000000;font-style:normal;font-variant:normal;font-weight:normal;font-stretch:normal;font-size:medium;line-height:normal;font-family:sans-serif;font-variant-ligatures:normal;font-variant-position:normal;font-variant-caps:normal;font-variant-numeric:normal;font-variant-alternates:normal;font-feature-settings:normal;text-indent:0;text-align:start;text-decoration:none;text-decoration-line:none;text-decoration-style:solid;text-decoration-color:#000000;letter-spacing:normal;word-spacing:normal;text-transform:none;writing-mode:lr-tb;direction:ltr;text-orientation:mixed;dominant-baseline:auto;baseline-shift:baseline;text-anchor:start;white-space:normal;shape-padding:0;clip-rule:nonzero;display:inline;overflow:visible;visibility:visible;opacity:1;isolation:auto;mix-blend-mode:normal;color-interpolation:sRGB;color-interpolation-filters:linearRGB;solid-color:#000000;solid-opacity:1;vector-effect:none;fill:#5555ec;fill-opacity:0.98823529;fill-rule:nonzero;stroke:#ffffff;stroke-width:0.26458333;stroke-linecap:round;stroke-linejoin:round;stroke-miterlimit:4;stroke-dasharray:none;stroke-dashoffset:0;stroke-opacity:0.98823529;color-rendering:auto;image-rendering:auto;shape-rendering:auto;text-rendering:auto;enable-background:accumulate"
                    d="m 13.162109,273.57617 c -5.6145729,0 -10.1933596,4.58074 -10.193359,10.19531 -6e-7,5.61458 4.5787861,10.19336 10.193359,10.19336 5.614574,0 10.195313,-4.57878 10.195313,-10.19336 0,-5.61457 -4.580739,-10.19531 -10.195313,-10.19531 z m 0,2.64649 c 4.184659,0 7.548829,3.36417 7.548829,7.54882 0,4.18466 -3.36417,7.54883 -7.548829,7.54883 -4.1846584,0 -7.546875,-3.36417 -7.5468746,-7.54883 -4e-7,-4.18465 3.3622162,-7.54882 7.5468746,-7.54882 z"
                    id="path815"
                    inkscape:connector-curvature="0"/>
            <path
                    id="path839"
                    style="color:#000000;font-style:normal;font-variant:normal;font-weight:normal;font-stretch:normal;font-size:medium;line-height:normal;font-family:sans-serif;font-variant-ligatures:normal;font-variant-position:normal;font-variant-caps:normal;font-variant-numeric:normal;font-variant-alternates:normal;font-feature-settings:normal;text-indent:0;text-align:start;text-decoration:none;text-decoration-line:none;text-decoration-style:solid;text-decoration-color:#000000;letter-spacing:normal;word-spacing:normal;text-transform:none;writing-mode:lr-tb;direction:ltr;text-orientation:mixed;dominant-baseline:auto;baseline-shift:baseline;text-anchor:start;white-space:normal;shape-padding:0;clip-rule:nonzero;display:inline;overflow:visible;visibility:visible;opacity:1;isolation:auto;mix-blend-mode:normal;color-interpolation:sRGB;color-interpolation-filters:linearRGB;solid-color:#000000;solid-opacity:1;vector-effect:none;fill:#0055ec;fill-opacity:0.98823529;fill-rule:nonzero;stroke:#ffffff;stroke-width:0.26458333;stroke-linecap:round;stroke-linejoin:miter;stroke-miterlimit:4;stroke-dasharray:none;stroke-dashoffset:0;stroke-opacity:0.98823529;color-rendering:auto;image-rendering:auto;shape-rendering:auto;text-rendering:auto;enable-background:accumulate"
                    d="m 13.212891,286.88672 a 1.0487243,1.0487243 0 0 0 -1.033203,1.06445 v 7.94922 a 1.048828,1.048828 0 1 0 2.097656,0 v -7.94922 a 1.0487243,1.0487243 0 0 0 -1.064453,-1.06445 z m 0,-16.36914 a 1.0487243,1.0487243 0 0 0 -1.033203,1.0625 v 7.94922 a 1.048828,1.048828 0 1 0 2.097656,0 v -7.94922 a 1.0487243,1.0487243 0 0 0 -1.064453,-1.0625 z m 4.246093,12.20508 a 1.048825,1.048825 0 1 0 0,2.09765 h 7.949219 a 1.048825,1.048825 0 1 0 0,-2.09765 z m -16.4179684,0 a 1.048825,1.048825 0 1 0 0,2.09765 h 7.9492188 a 1.048825,1.048825 0 1 0 0,-2.09765 z"/>
        </g>
    </g>
</svg>

<?xml version="1.0" encoding="UTF-8" standalone="yes"?>
<svg xmlns="http://www.w3.org/2000/svg" xmlns:xlink="http://www.w3.org/1999/xlink" width="375px" height="375px" viewBox="0 0 375 375" version="1.1">
  <g id="surface1">
    <path style="fill-rule:nonzero;fill:rgb(33.333334%,33.333334%,92.54902%);fill-opacity:0.988235;stroke-width:0.264583;stroke-linecap:round;stroke-linejoin:round;stroke:rgb(100%,100%,100%);stroke-opacity:0.988235;stroke-miterlimit:4;" d="M 13.162193 273.576097 C 7.547514 273.576097 2.968845 278.156971 2.968845 283.771375 C 2.968845 289.386054 7.547514 293.964723 13.162193 293.964723 C 18.776597 293.964723 23.357471 289.386054 23.357471 283.771375 C 23.357471 278.156971 18.776597 273.576097 13.162193 273.576097 Z M 13.162193 276.222757 C 17.346744 276.222757 20.710811 279.586824 20.710811 283.771375 C 20.710811 287.956201 17.346744 291.320268 13.162193 291.320268 C 8.977367 291.320268 5.615229 287.956201 5.615229 283.771375 C 5.615229 279.586824 8.977367 276.222757 13.162193 276.222757 Z M 13.162193 276.222757 " transform="matrix(14.173228,0,0,14.173228,0.0000135166,-3834.448583)"/>
    <path style="fill-rule:nonzero;fill:rgb(0%,33.333334%,92.54902%);fill-opacity:0.988235;stroke-width:0.264583;stroke-linecap:round;stroke-linejoin:miter;stroke:rgb(100%,100%,100%);stroke-opacity:0.988235;stroke-miterlimit:4;" d="M 13.212905 286.886844 C 12.633578 286.895112 12.170833 287.371913 12.179652 287.95124 L 12.179652 295.900316 C 12.179652 296.479643 12.649288 296.949279 13.228615 296.949279 C 13.807666 296.949279 14.277302 296.479643 14.277302 295.900316 L 14.277302 287.95124 C 14.281712 287.66764 14.170917 287.394237 13.970275 287.19387 C 13.769633 286.993228 13.496505 286.882434 13.212905 286.886844 Z M 13.212905 270.517679 C 12.634405 270.526222 12.171935 271.001646 12.179652 271.580146 L 12.179652 279.529222 C 12.179652 280.108549 12.649288 280.578185 13.228615 280.578185 C 13.807666 280.578185 14.277302 280.108549 14.277302 279.529222 L 14.277302 271.580146 C 14.28116 271.296821 14.170091 271.02397 13.969724 270.823879 C 13.769081 270.623788 13.49623 270.513269 13.212905 270.517679 Z M 17.458917 282.722688 C 16.879865 282.722688 16.410229 283.192323 16.410229 283.771375 C 16.410229 284.350702 16.879865 284.820337 17.458917 284.820337 L 25.408268 284.820337 C 25.98732 284.820337 26.456955 284.350702 26.456955 283.771375 C 26.456955 283.192323 25.98732 282.722688 25.408268 282.722688 Z M 1.040969 282.722688 C 0.461642 282.722688 -0.00771797 283.192323 -0.00771797 283.771375 C -0.00771797 284.350702 0.461642 284.820337 1.040969 284.820337 L 8.99032 284.820337 C 9.569372 284.820337 10.039008 284.350702 10.039008 283.771375 C 10.039008 283.192323 9.569372 282.722688 8.99032 282.722688 Z M 1.040969 282.722688 " transform="matrix(14.173228,0,0,14.173228,0.0000135166,-3834.448583)"/>
  </g>
</svg>
